X:1
T:Til konsul Axel Heiberg
T:Fanevagt
T:Ole Olsen 
T:F. Bauditz
C:Sigurd Lie
Z:Andres Aas
%%score [ 1 2 3 4 ]
L:1/8
Q:1/4=70
M:4/4
K:Bb
V:1 treble-8 nm="T1"
V:2 treble-8 nm="T2"
V:3 bass nm="Baryton"
V:4 bass nm="Bass"
V:1
"^Ikke for langsomt"!f! B3 B F2 G2 | D2 E2 F2 F2 | z2!mf! B3/2 B/ B3/2 c/ c d | f6 z2 | %4
w: 1.Fold deg ud, vort|gam- le mær- ke,|e- vig un- ge san- ger-|flag!|
w: 2.Frem- ad o- ver|ti- dens bøl- ge!|San- gens søn- ner svig- te|ei;|
w: 3.Løft da høit vor|san- ger- fa- ne!|Fylk om den en ung- doms-|vagt!|
 g3 g d2 f2 | B2 c2 d2 d2 | z2 c3/2 c/ c3/2 c/ d =e | f6 z2 | f3 c d3/2 d/ d3/2 d/ | %9
w: Gjør de ve- ke|vil- jer stær- ke,|naar du løf- tes for vor|sag!|Lær os seigt som e- gens|
w: nat- tens mulm kan|maal- et døl- ge,|tro- fast vi- ser du os|vei.|Dig- tets syn med kla- re|
w: Lad den straa- le|paa vor ba- ne|al- tid kjækt og u- for-|sagt!|Du- gen rød skal til det|
 e2 e2 z2 e3/2 e/ | d3 B f2 d2 | c6 z2 |!f! (f3 f) f2 z2 |!ff! (g3 g) g2 z2 | g3/2 g/ d d f e d c | %15
w: kvi- ste hol- de|ud med mo- digt|bryst!|Styrk * os,|styrk * os,|styrk os, at vi al- drig mi- ste|
w: øi- ne klø- ver|taa- gens al- fe-|spind.|Skjærp vort blik,|skjærp vort blik,|skjærp vort blik, naar ti- dens løg- ne|
w: fjer- ne brin- ge|bud, som bau- nens|brand.|Brin- ge bud,|brin- ge bud,|at den un- ge slægt vil vær- ne|
 B2 c2 d2 e2 | c4 f4 | B6 z2 :|!f!"^Coda" d3 d d3/2 d/ d3/2 d/ | !^!d2 !^!d2 z4 | %20
w: haa- bets gla- de|sang- fugl-|røst.|Fold dig ud, vort gam- le|mær- ke!|
w: slø- rer i- de-|al- ets|tind.|||
w: fri- hed, kon- ge,|fæd- re-|land!|||
 d3 d d3/2 d/ d3/2 d/ | !^!f2 !^!f2 z4 | !^!g7/2 g/ f3 z | !^!g7/2 g/ f3 z | z4 z2 f3/2 f/ | %25
w: Fold dig ud, vort gam- le|mær- ke!|Fold dig ud!|Fold dig ud!|Fold dig|
w: |||||
w: |||||
!ff! b6 z2 |] %26
w: ud!|
w: |
w: |
V:2
!f! B3 B F2 G2 | D2 E2 F2 F2 | z2!mf! F3/2 F/ F3/2 A/ A B | d6 z2 | d3 d B2 c2 | G2 A2 B2 B2 | %6
w: 1.Fold deg ud, vort|gam- le mær- ke,|e- vig un- ge san- ger-|flag!|Gjør de ve- ke|vil- jer stær- ke,|
w: 2.Frem- ad o- ver|ti- dens bøl- ge!|San- gens søn- ner svig- te|ei;|nat- tens mulm kan|maal- et døl- ge,|
w: 3.Løft da høit vor|san- ger- fa- ne!|Fylk om den en ung- doms-|vagt!|Lad den straa- le|paa vor ba- ne|
 z2 B3/2 B/ B3/2 B/ B B | A6 z2 | c3 A B3/2 B/ B3/2 B/ | F2 F2 z2 A3/2 A/ | B3 B B2 F2 | F6 z2 | %12
w: naar du løf- tes for vor|sag!|Lær os seigt som e- gens|kvi- ste hol- de|ud med mo- digt|bryst!|
w: tro- fast vi- ser du os|vei.|Dig- tets syn med kla- re|øi- ne klø- ver|taa- gens al- fe-|spind.|
w: al- tid kjækt og u- for-|sagt!|Du- gen rød skal til det|fjer- ne brin- ge|bud, som bau- nens|brand.|
!f! (d3 d) c2 z2 |!ff! (e3 e) d2 z2 | d3/2 d/ d d B B G G | F2 B2 d2 c2 | B4 A4 | B6 z2 :| %18
w: Styrk * os,|styrk * os,|styrk os, at vi al- drig mi- ste|haa- bets gla- de|sang- fugl-|røst.|
w: Skjærp vort blik,|skjærp vort blik,|skjærp vort blik, naar ti- dens løg- ne|slø- rer i- de-|al- ets|tind.|
w: Brin- ge bud,|brin- ge bud,|at den un- ge slægt vil vær- ne|fri- hed, kon- ge,|fæd- re-|land!|
!f! d3 d d3/2 d/ d3/2 d/ | !^!B2 !^!B2 z4 | B3 B B3/2 B/ B3/2 B/ | !^!d2 !^!d2 z4 | %22
w: Fold dig ud, vort gam- le|mær- ke!|Fold dig ud, vort gam- le|mær- ke!|
w: ||||
w: ||||
 !^!e7/2 e/ d3 z | !^!e7/2 e/ d3 z | z4 c7/2 c/ |!ff! f6 z2 |] %26
w: Fold dig ud!|Fold dig ud!|Fold dig|ud!|
w: ||||
w: ||||
V:3
!f! B,3 B, F,2 G,2 | D,2 E,2 F,2 F,2 | z2!mf! D,3/2 C,/ D,3/2 F,/ F, F, | B,6 z2 | B,3 B, B,2 A,2 | %5
w: 1.Fold deg ud, vort|gam- le mær- ke,|e- vig un- ge san- ger-|flag!|Gjør de ve- ke|
w: 2.Frem- ad o- ver|ti- dens bøl- ge!|San- gens søn- ner svig- te|ei;|nat- tens mulm kan|
w: 3.Løft da høit vor|san- ger- fa- ne!|Fylk om den en ung- doms-|vagt!|Lad den straa- le|
 G,2 E,2 F,2 F,2 | z2 =E,3/2 E,/ C3/2 B,/ A, G, | F,6 z2 | A,3 C B,3/2 A,/ G,3/2 F,/ | %9
w: vil- jer stær- ke,|naar du løf- tes for vor|sag!|Lær os seigt som e- gens|
w: maal- et døl- ge,|tro- fast vi- ser du os|vei.|Dig- tets syn med kla- re|
w: paa vor ba- ne|al- tid kjækt og u- for-|sagt!|Du- gen rød skal til det|
 B,2 A,2 z2 F,3/2 F,/ | F,3 G, F,2 B,2 | A,6 z2 |!f! (B,3 B,) A,2 z2 |!ff! (C3 C) B,2 z2 | %14
w: kvi- ste hol- de|ud med mo- digt|bryst!|Styrk * os,|styrk * os,|
w: øi- ne klø- ver|taa- gens al- fe-|spind.|Skjærp vort blik,|skjærp vort blik,|
w: fjer- ne brin- ge|bud, som bau- nens|brand.|Brin- ge bud,|brin- ge bud,|
 B,3/2 B,/ B, B, A, G, F, E, | D,2 E,2 B,2 B,2 | C4 C4 | B,6 z2 :| z8 | z4!f! F,3/2 F,/ F,2 | z8 | %21
w: styrk os, at vi al- drig mi- ste|haa- bets gla- de|sang- fugl-|røst.||Fold dig ud!||
w: skjærp vort blik, naar ti- dens løg- ne|slø- rer i- de-|al- ets|tind.||||
w: at den un- ge slægt vil vær- ne|fri- hed, kon- ge,|fæd- re-|land!||||
 z4!f! B,3/2 B,/ B,2 | z2 B,3/2 C/ D3 z | z2 B,3/2 C/ D3 z | z2 A,4- A,3/2 A,/ |!ff! D6 z2 |] %26
w: Fold dig ud!|Fold dig ud!|Fold dig ud!|Fold _ dig|ud!|
w: |||||
w: |||||
V:4
!f! B,3 B, F,2 G,2 | D,2 E,2 F,2 F,2 | z2!mf!!mf! D,3/2 C,/ D,3/2 F,/ F, F, | B,6 z2 | %4
w: 1.Fold deg ud, vort|gam- le mær- ke,|e- vig un- ge san- ger-|flag!|
w: 2.Frem- ad o- ver|ti- dens bøl- ge!|San- gens søn- ner svig- te|ei;|
w: 3.Løft da høit vor|san- ger- fa- ne!|Fylk om den en ung- doms-|vagt!|
 G,3 G, G,2 F,2 | E,2 C,2 B,,2 B,,2 | z2 C,3/2 C,/ C,3/2 C,/ C, C, | F,6 z2 | %8
w: Gjør de ve- ke|vil- jer stær- ke,|naar du løf- tes for vor|sag!|
w: nat- tens mulm kan|maal- et døl- ge,|tro- fast vi- ser du os|vei.|
w: Lad den straa- le|paa vor ba- ne|al- tid kjækt og u- for-|sagt!|
 F,3 A, G,3/2 F,/ E,3/2 D,/ | C,2 C,2 z2 _C,3/2 C,/ | B,,3 E, D,2 B,,2 | F,6 z2 | %12
w: Lær os seigt som e- gens|kvi- ste hol- de|ud med mo- digt|bryst!|
w: Dig- tets syn med kla- re|øi- ne klø- ver|taa- gens al- fe-|spind.|
w: Du- gen rød skal til det|fjer- ne brin- ge|bud, som bau- nens|brand.|
!f! (B,3 B,) A,2 z2 |!ff! (C3 C) B,2 z2 | B,3/2 B,/ B, B, A, G, F, E, | D,2 E,2 G,2 _G,2 | %16
w: Styrk * os,|styrk * os,|styrk os, at vi al- drig mi- ste|haa- bets gla- de|
w: Skjærp vort blik,|skjærp vort blik,|skjærp vort blik, naar ti- dens løg- ne|slø- rer i- de-|
w: Brin- ge bud,|brin- ge bud,|at den un- ge slægt vil vær- ne|fri- hed, kon- ge,|
 F,4 F,4 | B,6 z2 :| z8 | z4!f! B,,3/2 B,,/ B,,2 | z8 | z4!f! B,,3/2 B,,/ B,,2 | %22
w: sang- fugl-|røst.||Fold dig ud!||Fold dig ud!|
w: al- ets|tind.|||||
w: fæd- re-|land!|||||
 z2 G,3/2 A,/ B,3 z | z2 G,3/2 A,/ B,3 z | F,4 F, z F,3/2 F,/ |!ff! [B,,B,]6 z2 |] %26
w: Fold dig ud!|Fold dig ud!|Fold dig, fold dig|ud!|
w: ||||
w: ||||

